!!!OTL: EI SIN D'R DENN DEI HOSENBENGEL
!!!ARE: Europa, Mitteleuropa, Deutschland, Hessen, Kassel, Schwalmgrund
!!!SCT: E0994A
!!!YEM: Copyright 1995, estate of Helmut Schaffrath.
**kern
*ICvox
*Ivox
*M2/4
*k[]
*C:
{8g
=1
8e
8g
8g
8g
=2
8e
8g
8g
8g
=3
8cc
8b
8a
8g
=4
4g
8f
8r}
=5
{8d
8f
8f
8f
=6
8d
8f
8f
8f
=7
8a
8g
8f
8e
=8
4f
8e
8r}
==
!!!AGN: Tanz - Lied, Reigen
!!!ONB: ESAC (Essen Associative Code) Database: ERK2
!!!AMT: simple duple
!!!AIN: vox
!!!EED: Helmut Schaffrath
!!!EEV: 1.0
*-
